static/img/kroki/6a3862607d2d22b53fdd86d5c77bbe2c.svg

<?xml version="1.0" encoding="us-ascii" standalone="no"?><svg xmlns="http://www.w3.org/2000/svg" xmlns:xlink="http://www.w3.org/1999/xlink" contentStyleType="text/css" height="1151px" preserveAspectRatio="none" style="width:351px;height:1151px;" version="1.1" viewBox="0 0 351 1151" width="351px" zoomAndPan="magnify"><defs/><g><!--class ai_model--><g id="elem_ai_model"><rect codeLine="23" fill="#3D176E" height="39.7891" id="ai_model" rx="2.5" ry="2.5" style="stroke:#000D19;stroke-width:0.5;" width="118" x="55.5" y="672.63"/><ellipse cx="70.5" cy="692.5245" fill="#ADD1B2" rx="11" ry="11" style="stroke:#181818;stroke-width:1.0;"/><path d="M73.4688,698.1652 Q72.8906,698.462 72.25,698.6027 Q71.6094,698.7589 70.9063,698.7589 Q68.4063,698.7589 67.0781,697.1183 Q65.7656,695.462 65.7656,692.337 Q65.7656,689.212 67.0781,687.5558 Q68.4063,685.8995 70.9063,685.8995 Q71.6094,685.8995 72.25,686.0558 Q72.9063,686.212 73.4688,686.5089 L73.4688,689.2277 Q72.8438,688.6495 72.25,688.3839 Q71.6563,688.1027 71.0313,688.1027 Q69.6875,688.1027 69,689.1808 Q68.3125,690.2433 68.3125,692.337 Q68.3125,694.4308 69,695.5089 Q69.6875,696.5714 71.0313,696.5714 Q71.6563,696.5714 72.25,696.3058 Q72.8438,696.0245 73.4688,695.4464 L73.4688,698.1652 Z " fill="#000000"/><text fill="#D9B8FF" font-family="Helvetica" font-size="17" lengthAdjust="spacing" textLength="76" x="89.5" y="698.4098">ai_model</text></g><!--class ai_resource--><g id="elem_ai_resource"><rect codeLine="26" fill="#3D176E" height="39.7891" id="ai_resource" rx="2.5" ry="2.5" style="stroke:#000D19;stroke-width:0.5;" width="137" x="41" y="438.76"/><ellipse cx="56" cy="458.6545" fill="#ADD1B2" rx="11" ry="11" style="stroke:#181818;stroke-width:1.0;"/><path d="M58.9688,464.2952 Q58.3906,464.592 57.75,464.7327 Q57.1094,464.8889 56.4063,464.8889 Q53.9063,464.8889 52.5781,463.2483 Q51.2656,461.592 51.2656,458.467 Q51.2656,455.342 52.5781,453.6858 Q53.9063,452.0295 56.4063,452.0295 Q57.1094,452.0295 57.75,452.1858 Q58.4063,452.342 58.9688,452.6389 L58.9688,455.3577 Q58.3438,454.7795 57.75,454.5139 Q57.1563,454.2327 56.5313,454.2327 Q55.1875,454.2327 54.5,455.3108 Q53.8125,456.3733 53.8125,458.467 Q53.8125,460.5608 54.5,461.6389 Q55.1875,462.7014 56.5313,462.7014 Q57.1563,462.7014 57.75,462.4358 Q58.3438,462.1545 58.9688,461.5764 L58.9688,464.2952 Z " fill="#000000"/><text fill="#D9B8FF" font-family="Helvetica" font-size="17" lengthAdjust="spacing" textLength="95" x="75" y="464.5398">ai_resource</text></g><!--class aws_bedrock_foundation_model--><g id="elem_aws_bedrock_foundation_model"><rect codeLine="29" fill="#3D176E" height="310.7578" id="aws_bedrock_foundation_model" rx="2.5" ry="2.5" style="stroke:#000D19;stroke-width:0.5;" width="337" x="7" y="833.42"/><ellipse cx="34.15" cy="853.3145" fill="#ADD1B2" rx="11" ry="11" style="stroke:#181818;stroke-width:1.0;"/><path d="M37.1188,858.9552 Q36.5406,859.252 35.9,859.3927 Q35.2594,859.5489 34.5563,859.5489 Q32.0563,859.5489 30.7281,857.9083 Q29.4156,856.252 29.4156,853.127 Q29.4156,850.002 30.7281,848.3458 Q32.0563,846.6895 34.5563,846.6895 Q35.2594,846.6895 35.9,846.8458 Q36.5563,847.002 37.1188,847.2989 L37.1188,850.0177 Q36.4938,849.4395 35.9,849.1739 Q35.3063,848.8927 34.6813,848.8927 Q33.3375,848.8927 32.65,849.9708 Q31.9625,851.0333 31.9625,853.127 Q31.9625,855.2208 32.65,856.2989 Q33.3375,857.3614 34.6813,857.3614 Q35.3063,857.3614 35.9,857.0958 Q36.4938,856.8145 37.1188,856.2364 L37.1188,858.9552 Z " fill="#000000"/><text fill="#D9B8FF" font-family="Helvetica" font-size="17" lengthAdjust="spacing" textLength="268" x="55.85" y="859.1998">aws_bedrock_foundation_model</text><line style="stroke:#000D19;stroke-width:0.5;" x1="8" x2="343" y1="873.2091" y2="873.2091"/><text fill="#D9B8FF" font-family="sans-serif" font-size="14" font-weight="bold" lengthAdjust="spacing" textLength="208" x="18" y="895.2042">customizations_supported</text><text fill="#D9B8FF" font-family="sans-serif" font-size="14" lengthAdjust="spacing" textLength="58" x="226" y="895.2042">: string[]</text><text fill="#D9B8FF" font-family="sans-serif" font-size="14" font-weight="bold" lengthAdjust="spacing" textLength="216" x="18" y="921.5011">inference_types_supported</text><text fill="#D9B8FF" font-family="sans-serif" font-size="14" lengthAdjust="spacing" textLength="58" x="234" y="921.5011">: string[]</text><text fill="#D9B8FF" font-family="sans-serif" font-size="14" font-weight="bold" lengthAdjust="spacing" textLength="127" x="18" y="947.7979">input_modalities</text><text fill="#D9B8FF" font-family="sans-serif" font-size="14" lengthAdjust="spacing" textLength="58" x="145" y="947.7979">: string[]</text><text fill="#D9B8FF" font-family="sans-serif" font-size="14" font-weight="bold" lengthAdjust="spacing" textLength="81" x="18" y="974.0948">model_arn</text><text fill="#D9B8FF" font-family="sans-serif" font-size="14" lengthAdjust="spacing" textLength="48" x="99" y="974.0948">: string</text><text fill="#D9B8FF" font-family="sans-serif" font-size="14" font-weight="bold" lengthAdjust="spacing" textLength="69" x="18" y="1000.3917">model_id</text><text fill="#D9B8FF" font-family="sans-serif" font-size="14" lengthAdjust="spacing" textLength="48" x="87" y="1000.3917">: string</text><text fill="#D9B8FF" font-family="sans-serif" font-size="14" font-weight="bold" lengthAdjust="spacing" textLength="176" x="18" y="1026.6886">model_lifecycle_status</text><text fill="#D9B8FF" font-family="sans-serif" font-size="14" lengthAdjust="spacing" textLength="48" x="194" y="1026.6886">: string</text><text fill="#D9B8FF" font-family="sans-serif" font-size="14" font-weight="bold" lengthAdjust="spacing" textLength="98" x="18" y="1052.9854">model_name</text><text fill="#D9B8FF" font-family="sans-serif" font-size="14" lengthAdjust="spacing" textLength="48" x="116" y="1052.9854">: string</text><text fill="#D9B8FF" font-family="sans-serif" font-size="14" font-weight="bold" lengthAdjust="spacing" textLength="172" x="18" y="1079.2823">model_provider_name</text><text fill="#D9B8FF" font-family="sans-serif" font-size="14" lengthAdjust="spacing" textLength="48" x="190" y="1079.2823">: string</text><text fill="#D9B8FF" font-family="sans-serif" font-size="14" font-weight="bold" lengthAdjust="spacing" textLength="139" x="18" y="1105.5792">output_modalities</text><text fill="#D9B8FF" font-family="sans-serif" font-size="14" lengthAdjust="spacing" textLength="58" x="157" y="1105.5792">: string[]</text><text fill="#D9B8FF" font-family="sans-serif" font-size="14" font-weight="bold" lengthAdjust="spacing" textLength="250" x="18" y="1131.8761">response_streaming_supported</text><text fill="#D9B8FF" font-family="sans-serif" font-size="14" lengthAdjust="spacing" textLength="65" x="268" y="1131.8761">: boolean</text></g><!--class aws_resource--><g id="elem_aws_resource"><rect codeLine="41" fill="#3D176E" height="74.0859" id="aws_resource" rx="2.5" ry="2.5" style="stroke:#000D19;stroke-width:0.5;" width="155" x="159" y="538.55"/><ellipse cx="174" cy="558.4445" fill="#ADD1B2" rx="11" ry="11" style="stroke:#181818;stroke-width:1.0;"/><path d="M176.9688,564.0852 Q176.3906,564.382 175.75,564.5227 Q175.1094,564.6789 174.4063,564.6789 Q171.9063,564.6789 170.5781,563.0383 Q169.2656,561.382 169.2656,558.257 Q169.2656,555.132 170.5781,553.4758 Q171.9063,551.8195 174.4063,551.8195 Q175.1094,551.8195 175.75,551.9758 Q176.4063,552.132 176.9688,552.4289 L176.9688,555.1477 Q176.3438,554.5695 175.75,554.3039 Q175.1563,554.0227 174.5313,554.0227 Q173.1875,554.0227 172.5,555.1008 Q171.8125,556.1633 171.8125,558.257 Q171.8125,560.3508 172.5,561.4289 Q173.1875,562.4914 174.5313,562.4914 Q175.1563,562.4914 175.75,562.2258 Q176.3438,561.9445 176.9688,561.3664 L176.9688,564.0852 Z " fill="#000000"/><text fill="#D9B8FF" font-family="Helvetica" font-size="17" lengthAdjust="spacing" textLength="113" x="193" y="564.3298">aws_resource</text><line style="stroke:#000D19;stroke-width:0.5;" x1="160" x2="313" y1="578.3391" y2="578.3391"/><text fill="#D9B8FF" font-family="sans-serif" font-size="14" font-weight="bold" lengthAdjust="spacing" textLength="26" x="170" y="600.3342">arn</text><text fill="#D9B8FF" font-family="sans-serif" font-size="14" lengthAdjust="spacing" textLength="48" x="196" y="600.3342">: string</text></g><!--class resource--><g id="elem_resource"><rect codeLine="44" fill="#3D176E" height="310.7578" id="resource" rx="2.5" ry="2.5" style="stroke:#000D19;stroke-width:0.5;" width="227" x="59" y="7"/><ellipse cx="127.75" cy="26.8945" fill="#ADD1B2" rx="11" ry="11" style="stroke:#181818;stroke-width:1.0;"/><path d="M130.7188,32.5352 Q130.1406,32.832 129.5,32.9727 Q128.8594,33.1289 128.1563,33.1289 Q125.6563,33.1289 124.3281,31.4883 Q123.0156,29.832 123.0156,26.707 Q123.0156,23.582 124.3281,21.9258 Q125.6563,20.2695 128.1563,20.2695 Q128.8594,20.2695 129.5,20.4258 Q130.1563,20.582 130.7188,20.8789 L130.7188,23.5977 Q130.0938,23.0195 129.5,22.7539 Q128.9063,22.4727 128.2813,22.4727 Q126.9375,22.4727 126.25,23.5508 Q125.5625,24.6133 125.5625,26.707 Q125.5625,28.8008 126.25,29.8789 Q126.9375,30.9414 128.2813,30.9414 Q128.9063,30.9414 129.5,30.6758 Q130.0938,30.3945 130.7188,29.8164 L130.7188,32.5352 Z " fill="#000000"/><text fill="#D9B8FF" font-family="Helvetica" font-size="17" lengthAdjust="spacing" textLength="71" x="153.25" y="32.7798">resource</text><line style="stroke:#000D19;stroke-width:0.5;" x1="60" x2="285" y1="46.7891" y2="46.7891"/><text fill="#D9B8FF" font-family="sans-serif" font-size="14" font-weight="bold" lengthAdjust="spacing" textLength="29" x="70" y="68.7842">age</text><text fill="#D9B8FF" font-family="sans-serif" font-size="14" lengthAdjust="spacing" textLength="66" x="99" y="68.7842">: duration</text><text fill="#D9B8FF" font-family="sans-serif" font-size="14" font-weight="bold" lengthAdjust="spacing" textLength="43" x="70" y="95.0811">atime</text><text fill="#D9B8FF" font-family="sans-serif" font-size="14" lengthAdjust="spacing" textLength="70" x="113" y="95.0811">: datetime</text><text fill="#D9B8FF" font-family="sans-serif" font-size="14" font-weight="bold" lengthAdjust="spacing" textLength="43" x="70" y="121.3779">ctime</text><text fill="#D9B8FF" font-family="sans-serif" font-size="14" lengthAdjust="spacing" textLength="70" x="113" y="121.3779">: datetime</text><text fill="#D9B8FF" font-family="sans-serif" font-size="14" font-weight="bold" lengthAdjust="spacing" textLength="14" x="70" y="147.6748">id</text><text fill="#D9B8FF" font-family="sans-serif" font-size="14" lengthAdjust="spacing" textLength="48" x="84" y="147.6748">: string</text><text fill="#D9B8FF" font-family="sans-serif" font-size="14" font-weight="bold" lengthAdjust="spacing" textLength="33" x="70" y="173.9717">kind</text><text fill="#D9B8FF" font-family="sans-serif" font-size="14" lengthAdjust="spacing" textLength="48" x="103" y="173.9717">: string</text><text fill="#D9B8FF" font-family="sans-serif" font-size="14" font-weight="bold" lengthAdjust="spacing" textLength="90" x="70" y="200.2686">last_access</text><text fill="#D9B8FF" font-family="sans-serif" font-size="14" lengthAdjust="spacing" textLength="66" x="160" y="200.2686">: duration</text><text fill="#D9B8FF" font-family="sans-serif" font-size="14" font-weight="bold" lengthAdjust="spacing" textLength="90" x="70" y="226.5654">last_update</text><text fill="#D9B8FF" font-family="sans-serif" font-size="14" lengthAdjust="spacing" textLength="66" x="160" y="226.5654">: duration</text><text fill="#D9B8FF" font-family="sans-serif" font-size="14" font-weight="bold" lengthAdjust="spacing" textLength="48" x="70" y="252.8623">mtime</text><text fill="#D9B8FF" font-family="sans-serif" font-size="14" lengthAdjust="spacing" textLength="70" x="118" y="252.8623">: datetime</text><text fill="#D9B8FF" font-family="sans-serif" font-size="14" font-weight="bold" lengthAdjust="spacing" textLength="43" x="70" y="279.1592">name</text><text fill="#D9B8FF" font-family="sans-serif" font-size="14" lengthAdjust="spacing" textLength="48" x="113" y="279.1592">: string</text><text fill="#D9B8FF" font-family="sans-serif" font-size="14" font-weight="bold" lengthAdjust="spacing" textLength="34" x="70" y="305.4561">tags</text><text fill="#D9B8FF" font-family="sans-serif" font-size="14" lengthAdjust="spacing" textLength="171" x="104" y="305.4561">: dictionary[string, string]</text></g><!--reverse link ai_resource to ai_model--><g id="link_ai_resource_ai_model"><path codeLine="56" d="M110.3066,497.0158 C111.2466,540.7758 113.15,628.83 114.09,672.38 " fill="none" id="ai_resource-backto-ai_model" style="stroke:#FFAF37;stroke-width:2.0;"/><polygon fill="none" points="109.92,479.02,104.3079,497.1447,116.3052,496.887,109.92,479.02" style="stroke:#FFAF37;stroke-width:2.0;"/></g><!--reverse link resource to ai_resource--><g id="link_resource_ai_resource"><path codeLine="57" d="M135.6612,335.441 C125.3212,383.731 118.98,413.37 113.56,438.67 " fill="none" id="resource-backto-ai_resource" style="stroke:#FFAF37;stroke-width:2.0;"/><polygon fill="none" points="139.43,317.84,129.7942,334.1848,141.5282,336.6973,139.43,317.84" style="stroke:#FFAF37;stroke-width:2.0;"/></g><!--reverse link ai_model to aws_bedrock_foundation_model--><g id="link_ai_model_aws_bedrock_foundation_model"><path codeLine="58" d="M122.1559,730.4648 C127.4059,755.7748 133.46,785.01 143.4,832.96 " fill="none" id="ai_model-backto-aws_bedrock_foundation_model" style="stroke:#FFAF37;stroke-width:2.0;"/><polygon fill="none" points="118.5,712.84,116.2809,731.6835,128.0308,729.2462,118.5,712.84" style="stroke:#FFAF37;stroke-width:2.0;"/></g><!--reverse link aws_resource to aws_bedrock_foundation_model--><g id="link_aws_resource_aws_bedrock_foundation_model"><path codeLine="59" d="M228.4468,630.8849 C221.1368,680.1249 210.32,753.08 198.47,832.94 " fill="none" id="aws_resource-backto-aws_bedrock_foundation_model" style="stroke:#FFAF37;stroke-width:2.0;"/><polygon fill="none" points="231.09,613.08,222.5118,630.0038,234.3817,631.7659,231.09,613.08" style="stroke:#FFAF37;stroke-width:2.0;"/></g><!--reverse link resource to aws_resource--><g id="link_resource_aws_resource"><path codeLine="60" d="M199.3685,336.0358 C211.8085,415.9558 223.18,488.98 230.84,538.2 " fill="none" id="resource-backto-aws_resource" style="stroke:#FFAF37;stroke-width:2.0;"/><polygon fill="none" points="196.6,318.25,193.4399,336.9586,205.2971,335.113,196.6,318.25" style="stroke:#FFAF37;stroke-width:2.0;"/></g><!--SRC=[ZPHFRzim3CNl_XG6UZCM85cnfHbswG8CswKOrjsAmg0bEX5YImP5DKYtVVT9TkBwNztTZCUVoSSdsNibCSQoubDSOfaXsSWUbAw0e8nlYSnnQmf3yLMUGtwz7XQ_6irl0dTGOlmDYoTa9M18_DehST1eRVo-K_e2uh0ZuxHisZE1jhw4cZlKjW1hRvb9POwnOqPkifiy7vB3fbVNShN-Y2FCa4Gw8ylbKgusG-JDKRDxjyIzUiPurGtjpZ2ER8v6rDIioq1qJ8uMlTHVzVW3f5Hw5t_eQ3yRJwIHUlhz7gGv1Zg7mdR7M4P2mwSAjwEjS7CZy_Ka_FqrE18XkXXKMXg9HVmxYlw-Q8JME1BOauyspL2I4OSq3ms1bT7jwqaYd6LJgkTQjwbrLMM8KIR99- -8_5OFZnvJElVkjC0q69pZAiUXFHIA5Tf1kPwR0kaNlLMLd10BbQCuYG9Joy3EJY3Qd-64N95vybytZUl6yQn9dsFbimWZ2Q7qSd_Tp9W2GVSoxcIV9FtzBbWVsTMUfACw-A2mQdpw8yBm70vdGXl4vAzFN_2pE0KX_2zbCA6kk2hq6bJAYJcZs1XsJKSbmcj0fuUczkxCFFfLkzVmyv_5Oj5UrcYiNvIelT3dqiobZNff_mS_mRPp_m40]--></g></svg>

<svg xmlns="http://www.w3.org/2000/svg" width="351" height="1151" viewBox="0 0 351 1151"><rect width="118" height="39.789" x="55.5" y="672.63" fill="#3D176E" rx="2.5" ry="2.5" style="stroke:#000d19;stroke-width:.5"/><circle cx="70.5" cy="692.524" r="11" fill="#ADD1B2" style="stroke:#181818;stroke-width:1"/><path d="M73.469 698.165q-.578.297-1.219.438-.64.156-1.344.156-2.5 0-3.828-1.64-1.312-1.657-1.312-4.782t1.312-4.781q1.328-1.657 3.828-1.657.703 0 1.344.157.656.156 1.219.453v2.719q-.625-.578-1.219-.844-.594-.281-1.219-.281-1.344 0-2.031 1.078-.687 1.062-.687 3.156t.687 3.172q.688 1.062 2.031 1.062.625 0 1.219-.265.594-.282 1.219-.86z"/><text x="89.5" y="698.41" fill="#D9B8FF" font-family="Helvetica" font-size="17" textLength="76">ai_model</text><rect width="137" height="39.789" x="41" y="438.76" fill="#3D176E" rx="2.5" ry="2.5" style="stroke:#000d19;stroke-width:.5"/><circle cx="56" cy="458.654" r="11" fill="#ADD1B2" style="stroke:#181818;stroke-width:1"/><path d="M58.969 464.295q-.578.297-1.219.438-.64.156-1.344.156-2.5 0-3.828-1.64-1.312-1.657-1.312-4.782t1.312-4.781q1.328-1.656 3.828-1.656.703 0 1.344.156.656.156 1.219.453v2.719q-.625-.579-1.219-.844-.594-.281-1.219-.281-1.343 0-2.031 1.078-.687 1.062-.687 3.156t.687 3.172q.688 1.062 2.031 1.062.625 0 1.219-.265.594-.281 1.219-.86z"/><text x="75" y="464.54" fill="#D9B8FF" font-family="Helvetica" font-size="17" textLength="95">ai_resource</text><rect width="337" height="310.758" x="7" y="833.42" fill="#3D176E" rx="2.5" ry="2.5" style="stroke:#000d19;stroke-width:.5"/><circle cx="34.15" cy="853.314" r="11" fill="#ADD1B2" style="stroke:#181818;stroke-width:1"/><path d="M37.119 858.955q-.578.297-1.219.438-.64.156-1.344.156-2.5 0-3.828-1.64-1.312-1.657-1.312-4.782t1.312-4.781q1.328-1.657 3.828-1.657.703 0 1.344.157.656.156 1.219.453v2.719q-.625-.579-1.219-.844-.594-.281-1.219-.281-1.343 0-2.031 1.078-.687 1.062-.687 3.156t.687 3.172q.688 1.062 2.031 1.062.625 0 1.219-.265.594-.282 1.219-.86z"/><text x="55.85" y="859.2" fill="#D9B8FF" font-family="Helvetica" font-size="17" textLength="268">aws_bedrock_foundation_model</text><path d="M8 873.209h335" style="stroke:#000d19;stroke-width:.5"/><text x="18" y="895.204" fill="#D9B8FF" font-family="sans-serif" font-size="14" font-weight="bold" textLength="208">customizations_supported</text><text x="226" y="895.204" fill="#D9B8FF" font-family="sans-serif" font-size="14" textLength="58">: string[]</text><text x="18" y="921.501" fill="#D9B8FF" font-family="sans-serif" font-size="14" font-weight="bold" textLength="216">inference_types_supported</text><text x="234" y="921.501" fill="#D9B8FF" font-family="sans-serif" font-size="14" textLength="58">: string[]</text><text x="18" y="947.798" fill="#D9B8FF" font-family="sans-serif" font-size="14" font-weight="bold" textLength="127">input_modalities</text><text x="145" y="947.798" fill="#D9B8FF" font-family="sans-serif" font-size="14" textLength="58">: string[]</text><text x="18" y="974.095" fill="#D9B8FF" font-family="sans-serif" font-size="14" font-weight="bold" textLength="81">model_arn</text><text x="99" y="974.095" fill="#D9B8FF" font-family="sans-serif" font-size="14" textLength="48">: string</text><text x="18" y="1000.392" fill="#D9B8FF" font-family="sans-serif" font-size="14" font-weight="bold" textLength="69">model_id</text><text x="87" y="1000.392" fill="#D9B8FF" font-family="sans-serif" font-size="14" textLength="48">: string</text><text x="18" y="1026.689" fill="#D9B8FF" font-family="sans-serif" font-size="14" font-weight="bold" textLength="176">model_lifecycle_status</text><text x="194" y="1026.689" fill="#D9B8FF" font-family="sans-serif" font-size="14" textLength="48">: string</text><text x="18" y="1052.985" fill="#D9B8FF" font-family="sans-serif" font-size="14" font-weight="bold" textLength="98">model_name</text><text x="116" y="1052.985" fill="#D9B8FF" font-family="sans-serif" font-size="14" textLength="48">: string</text><text x="18" y="1079.282" fill="#D9B8FF" font-family="sans-serif" font-size="14" font-weight="bold" textLength="172">model_provider_name</text><text x="190" y="1079.282" fill="#D9B8FF" font-family="sans-serif" font-size="14" textLength="48">: string</text><text x="18" y="1105.579" fill="#D9B8FF" font-family="sans-serif" font-size="14" font-weight="bold" textLength="139">output_modalities</text><text x="157" y="1105.579" fill="#D9B8FF" font-family="sans-serif" font-size="14" textLength="58">: string[]</text><text x="18" y="1131.876" fill="#D9B8FF" font-family="sans-serif" font-size="14" font-weight="bold" textLength="250">response_streaming_supported</text><text x="268" y="1131.876" fill="#D9B8FF" font-family="sans-serif" font-size="14" textLength="65">: boolean</text><rect width="155" height="74.086" x="159" y="538.55" fill="#3D176E" rx="2.5" ry="2.5" style="stroke:#000d19;stroke-width:.5"/><circle cx="174" cy="558.444" r="11" fill="#ADD1B2" style="stroke:#181818;stroke-width:1"/><path d="M176.969 564.085q-.578.297-1.219.438-.64.156-1.344.156-2.5 0-3.828-1.64-1.312-1.657-1.312-4.782t1.312-4.781q1.328-1.657 3.828-1.657.703 0 1.344.157.656.156 1.219.453v2.719q-.625-.579-1.219-.844-.594-.281-1.219-.281-1.344 0-2.031 1.078-.687 1.062-.687 3.156t.687 3.172q.688 1.062 2.031 1.062.625 0 1.219-.265.594-.282 1.219-.86z"/><text x="193" y="564.33" fill="#D9B8FF" font-family="Helvetica" font-size="17" textLength="113">aws_resource</text><path d="M160 578.339h153" style="stroke:#000d19;stroke-width:.5"/><text x="170" y="600.334" fill="#D9B8FF" font-family="sans-serif" font-size="14" font-weight="bold" textLength="26">arn</text><text x="196" y="600.334" fill="#D9B8FF" font-family="sans-serif" font-size="14" textLength="48">: string</text><rect width="227" height="310.758" x="59" y="7" fill="#3D176E" rx="2.5" ry="2.5" style="stroke:#000d19;stroke-width:.5"/><circle cx="127.75" cy="26.895" r="11" fill="#ADD1B2" style="stroke:#181818;stroke-width:1"/><path d="M130.719 32.535q-.578.297-1.219.438-.64.156-1.344.156-2.5 0-3.828-1.64-1.312-1.657-1.312-4.782t1.312-4.781q1.328-1.656 3.828-1.656.703 0 1.344.156.656.156 1.219.453v2.719q-.625-.578-1.219-.844-.594-.281-1.219-.281-1.344 0-2.031 1.078-.687 1.062-.687 3.156t.687 3.172q.688 1.062 2.031 1.062.625 0 1.219-.265.594-.281 1.219-.86z"/><text x="153.25" y="32.78" fill="#D9B8FF" font-family="Helvetica" font-size="17" textLength="71">resource</text><path d="M60 46.789h225" style="stroke:#000d19;stroke-width:.5"/><text x="70" y="68.784" fill="#D9B8FF" font-family="sans-serif" font-size="14" font-weight="bold" textLength="29">age</text><text x="99" y="68.784" fill="#D9B8FF" font-family="sans-serif" font-size="14" textLength="66">: duration</text><text x="70" y="95.081" fill="#D9B8FF" font-family="sans-serif" font-size="14" font-weight="bold" textLength="43">atime</text><text x="113" y="95.081" fill="#D9B8FF" font-family="sans-serif" font-size="14" textLength="70">: datetime</text><text x="70" y="121.378" fill="#D9B8FF" font-family="sans-serif" font-size="14" font-weight="bold" textLength="43">ctime</text><text x="113" y="121.378" fill="#D9B8FF" font-family="sans-serif" font-size="14" textLength="70">: datetime</text><text x="70" y="147.675" fill="#D9B8FF" font-family="sans-serif" font-size="14" font-weight="bold" textLength="14">id</text><text x="84" y="147.675" fill="#D9B8FF" font-family="sans-serif" font-size="14" textLength="48">: string</text><text x="70" y="173.972" fill="#D9B8FF" font-family="sans-serif" font-size="14" font-weight="bold" textLength="33">kind</text><text x="103" y="173.972" fill="#D9B8FF" font-family="sans-serif" font-size="14" textLength="48">: string</text><text x="70" y="200.269" fill="#D9B8FF" font-family="sans-serif" font-size="14" font-weight="bold" textLength="90">last_access</text><text x="160" y="200.269" fill="#D9B8FF" font-family="sans-serif" font-size="14" textLength="66">: duration</text><text x="70" y="226.565" fill="#D9B8FF" font-family="sans-serif" font-size="14" font-weight="bold" textLength="90">last_update</text><text x="160" y="226.565" fill="#D9B8FF" font-family="sans-serif" font-size="14" textLength="66">: duration</text><text x="70" y="252.862" fill="#D9B8FF" font-family="sans-serif" font-size="14" font-weight="bold" textLength="48">mtime</text><text x="118" y="252.862" fill="#D9B8FF" font-family="sans-serif" font-size="14" textLength="70">: datetime</text><text x="70" y="279.159" fill="#D9B8FF" font-family="sans-serif" font-size="14" font-weight="bold" textLength="43">name</text><text x="113" y="279.159" fill="#D9B8FF" font-family="sans-serif" font-size="14" textLength="48">: string</text><text x="70" y="305.456" fill="#D9B8FF" font-family="sans-serif" font-size="14" font-weight="bold" textLength="34">tags</text><text x="104" y="305.456" fill="#D9B8FF" font-family="sans-serif" font-size="14" textLength="171">: dictionary[string, string]</text><path fill="none" d="M110.307 497.016c.94 43.76 2.843 131.814 3.783 175.364m-4.17-193.36-5.612 18.125 11.997-.258zm25.741-143.579c-10.34 48.29-16.681 77.929-22.101 103.229m25.87-120.83-9.636 16.345 11.734 2.512zm-17.274 412.625c5.25 25.31 11.304 54.545 21.244 102.495m-24.9-120.12-2.22 18.843 11.75-2.437z" style="stroke:#ffaf37;stroke-width:2"/><g fill="none"><path d="M228.447 630.885c-7.31 49.24-18.127 122.195-29.977 202.055" style="stroke:#ffaf37;stroke-width:2"/><path d="m231.09 613.08-8.578 16.924 11.87 1.762z" style="stroke:#ffaf37;stroke-width:2"/></g><path fill="none" d="M199.369 336.036c12.44 79.92 23.811 152.944 31.471 202.164M196.6 318.25l-3.16 18.709 11.857-1.846z" style="stroke:#ffaf37;stroke-width:2"/></svg>
